X:1533
T:Dick Gossip's
O:england
M:4/4
L:1/8
Q:220
C:Trad Irish
K:D
ef|gB B2 gBaB|gB B2 gfed|(3cBA eA fAeA|(3cBA ef gfef|
gB B2 gBaB|gB B2 gfed|cdef gfec|dfec d2:|
DE|F2 AF GFED|F2 AF GFED|E2 EF GFED|E2 EF GFED|
F2 AF GFED|F2 AF GFED|cdef gfec|dfec d2:|


